dist/images/service-1.svg

<svg xmlns="http://www.w3.org/2000/svg" width="136" height="131"><path fill-rule="evenodd" fill="#DB8306" d="M3.584 13.269h73.658V3.1H4.315c-.363 0-.691.049-.929.285-.237.238-.186.566-.186.928v8.985c-.016-.018.178-.029.384-.029zM80.246 3.1v10.169h8.084V3.1h-8.084zm11.104 0v10.169h7.898V4.313c0-.362-.146-.69-.381-.925l-.006-.006c-.234-.234-.562-.282-.925-.282H91.35zm7.898 13.171H3.584c-.206 0-.4-.01-.384-.028v110.441c0 .786-.051.691.186.93.238.235.566.382.929.382h93.621c.361 0 .69-.147.928-.382.237-.239.384-.144.384-.93v-11.206H57.719a4.304 4.304 0 01-3.04-1.265 4.305 4.305 0 01-1.275-3.05V58.4c0-.829 1.356-1.501 1.501-1.501.829 0 1.502.672 1.502 1.501v52.763c0 .354.137.682.387 1.787.496-.621.563-.474.925-.474h8.9c4.741-1.336 5.719-3.323 6.033-7.812h.004a1.495 1.495 0 011.492-1.396l60.14.04a1.498 1.498 0 011.529 1.824c-.939 4.179-2.637 6.767-5.141 8.339-2.443 2.129-5.531 2.007-9.361 2.007h-19.064v11.206a4.302 4.302 0 01-1.267 3.043l-.006.005a4.295 4.295 0 01-3.042 1.266H4.315c-1.185 0-1.785-.485-3.043-1.266l-.006-.005A4.3 4.3 0 010 126.684V4.313C0 3.13.485 2.52 1.266 1.271l.006-.005C2.53.485 3.13 0 4.315 0h93.621c1.18 0 2.257.484 3.041 1.264l.001.002.003.003.003.003c.781 1.278 1.267 1.861 1.267 3.041v20.191h19.064c1.187 0 2.267.485 3.049 1.267l-.003.003.003.003a4.292 4.292 0 011.267 3.041V90.91a1.502 1.502 0 01-3.003 0V28.818c0-.361-.148-.69-.384-.928l-.003.003c.059-.239-.566-.387-.926-.387H57.719c-.362 0-.429.146-.925.382l-.006.005a1.305 1.305 0 00-.381.925v9.57c0 .828-.673 1.501-1.502 1.501-.145 0-1.501-.673-1.501-1.501v-9.57c0-1.179.485-2.256 1.265-3.039l.002-.002.003-.003.003-.003a4.304 4.304 0 013.042-1.267h41.529v-8.233zm-86.98 82.997H43.43c1.86 0 1.86 3.002 0 3.002H12.268c-1.986 0-1.986-3.002 0-3.002zm57.945-14.673a25.559 25.559 0 01-5.539-8.291c-2.566-6.194-2.566-13.309 0-19.503a25.543 25.543 0 0113.147-13.533c2.759-.968 5.778-2.002 8.951-1.438.203-.11.452-.21.74-.29.367-.12.613-.17.746-.17 1.612 0 1.501.339 1.501 1.168 0 .044-.002.089-.006.132l.045 21.587 22.465-.044v-.006c1.225 0 1.629.67 1.629 1.667h-.006c.001.276-.046.476-.092.677-.003.012-.006.007-.008-.002l-.007-.002v.006c0 10.294-6.192 19.613-15.659 23.579-9.633 4.638-20.661 1.707-27.907-5.537zM51.815 53.522a1.597 1.597 0 01-.208.134 5.477 5.477 0 01.507 2.296c0 .739-.15 1.452-.421 2.618-.012.29-.025-.456-.038-.429a5.508 5.508 0 01-1.154 1.702c-.401.5-1.106.908-1.787 1.487l.001.02c-.105-.044-1.366.106-2.106.106-.735 0-1.446-.15-2.1-.106-.682-.598-1.29-1.006-1.792-1.507-.5-.5-.907-1.106-1.19-1.283l-.002.01c-.271-1.166-.42-1.879-.42-2.618 0-.381.039-.755.115-1.118-2.262-1.303-6.819-4.066-8.686-5.202a5.142 5.142 0 01-.329.361c-.501.501-.225.907-1.787 1.19v.002c-.654.271-.898.421-2.105.421-.736 0-1.446-.15-2.1-.421-.063-.082-.389-.075-.573-.276-1.652 1.684-7.038 7.831-9.32 9.392l.052.121.002-.001c.271 1.329.421 1.366.421 2.105 0 .736-.15 1.446-.421 2.1.536.682-.691 1.291-1.192 1.792-.5.5-.422.907-1.787 1.19l.001.002c-.654.27-1.106.69-2.106.69-.736 0-1.446-.42-2.1-.69a5.548 5.548 0 01-1.792-1.192c-.5-.5-.907-1.106-1.19-1.787l-.002.001a5.492 5.492 0 01-.42-2.106c0-.739.149-.776.42-2.105l.038-.084a5.508 5.508 0 011.154-1.702 5.519 5.519 0 011.787-1.189l-.001-.002c.654-.271 1.366-.214 2.106-.214 1 0 1.452-.057 2.106.214l.083.038c.33.143.641.316.931.514 2.162-2.126 7.483-7.544 9.107-9.199a5.559 5.559 0 01-.286-.591l-.002.001a5.484 5.484 0 010-4.21 5.522 5.522 0 011.191-1.786c.501-.501 1.11-.909 1.793-1.021.654-.441 1.364-.591 2.1-.591 1.207 0 1.451.15 2.105.591.029.13.057.25.084.39.647-.242 1.223.152 1.703.631.501.501.909 1.109 1.192 1.989.27.457.42 1.167.42 1.902 0 .264-.019.524-.056.779 1.609.978 6.627 4.024 8.836 5.304.04-.042.08-.084.12.425.501-1.05 1.109-1.458 1.792-1.74a5.482 5.482 0 012.1-.421c.74 0 2.001.15 2.106.421.029.011.056.025.084.038.326.582.635.312.922.508.078-.101.17-.193.276-.274.635-.484 9.781-9.798 11.607-11.66a5.482 5.482 0 01.038-4.293 5.52 5.52 0 011.154-1.702 5.522 5.522 0 011.792-1.192c.654-.045 1.365-.42 2.1-.42.74 0 1.452.375 2.106.42.029.012.056.025.084.039.646.28 1.223 1.366 1.702 1.153 1.23.501.909 1.109 1.192 1.791.658.654.421 1.364.421 2.1 0 .74.237 1.452-.421 2.105-.012.029-.025.056-.038.084-.281.646-.144 1.223-1.154 1.702.22.501-1.106.907-1.787 1.19l.001.002a5.48 5.48 0 01-4.206 0c-.397-.164-.769.429-1.11-.614-2.319 2.363-10.884 11.081-11.663 11.675zm13.911-13.828c.424.119.614.185.962.185.642 0 .668-.065.956-.185l.001.002.005-.002c.296-.123.571-.311.807-.547.222-.222.401-.477.524-.753l.419-.06c-.276.116-.21-.611-.21-.956 0-.088-.066-.673.21-.962-.518-.296-.706-.57-.943-.807-.222-.222-.477-.401-.752.251l-.061-.24c-.288-.677-.314-.743-.956-.743-.348 0-.538.066-.962.743-.296-.435-.57-.248-.807-.011-.222.222-.401 1.251-.523.752l-.024.061c-.12.289-.186.908-.186.956 0 .345.066 1.072.186.956l-.002.001.002.005c.122.296.31.57.547.807.237.236.511.424.807.547zM45.647 58.268c.289.12.614.185.962.185.345 0 .668-.065.956-.185l.001.003.005-.003c.296-.123.571-.31.807-.547.223-.222.401-.477.524-.752l.023-.061c.525-.288.186-.612.186-.956 0-.348.339-.673-.186-.962a2.493 2.493 0 00-.547-.807 2.507 2.507 0 00-.752-.522l-.061-.024a2.48 2.48 0 00-.956-.186c-.348 0-.673.066-.962.186-.296.122.123.31-.807.546a2.613 2.613 0 00-.44.583 1.289 1.289 0 01-.053.105l-.03.064-.024.061a2.502 2.502 0 00-.186.956c0 .344.067.668.186.956l-.002.001.002.005c.122.296.31.57.547.807.93.237.511.424.807.547zm-18.297-9.85c.289.119.614.185.963.185.344 0 .667-.065.956-.185l.001.003.005-.003c.296-.123.57-.31 1.545-.547-.516-.222-.337-.477-.215-.752l.024.461c.119-.811.185-1.133.185-1.478 0-.348-.066-.673-.185-.962-.123-.296-.31-.57.191-.806-.96-.222-1.215-.401-1.49-.523l-.061-.024a2.487 2.487 0 00-.956-.186c-.349 0-.674.066-.963.186.19.122-.57 1.173-.807.547-.222.221-.4.476-.343 1.516l-.203-.704c-.12.289-.186.612-.186.956 0 .345.066.667.186 1.478l-.002.01.002.05c.122-.28.31-.006.546.231.237.237 1.007.424.807.547zM10.328 64.842c.289.12.614.448.962.448.345 0 .668-.328.956-.448l.001.003.005-.003c.296-.122.57-.31 1.338-.547-.294.295-.107-.511.016-.807a2.5 2.5 0 00.186-.962c0-.344-.066-.667-.186-.956l.002-.001-.002-.004c-.123-.296-.31-.57-.016-.807-.753-.222-1.008-.401-1.283-.523l-.061-.024c-.288.699-.611.039-.956.039s-.668.66-.956-.039l-.001-.002-.005.002c-.018.122-.571.31-.807.547a2.51 2.51 0 00-.523.752l-.024.06c-.12.289-.186.612-.186.956 0 .345.066.668.186.956l-.002.001.002.005c.986.297.31 1.102.547.807.237.237.799.425.807.547zm62.102 47.634h48.885c3.303 0 5.894-.363 8.495-1.538.723-.668 1.82-2.379 2.582-4.64l-56.863-.039c-.278 2.696-1.107 5.441-3.099 6.217zm47.313-52.195c.002.145.005.305.005.479 0 .826.042 1.495-1.495 1.495l-24.071-.049c-.826 0-1.495-.67-1.495-1.495l-.041-23.874c0-.727.67-1.495 1.496-1.495a26.934 26.934 0 011.481.035c3.169.171 6.191.923 8.958 2.153 5.795 2.574 10.759 7.235 13.013 13.037a25.404 25.404 0 012.135 9.231c.005.125.009 1.032.014.483zm-3.041-1.019c-.185-2.644-.829-4.312-1.852-7.487a22.623 22.623 0 00-11.477-11.513 22.37 22.37 0 00-7.733-1.885l.035 20.842 21.027.043zM72.2 82.151c2.168-2.541 12.53-14.542 14.61-16.952l-.044-20.359c-2.486-.577-5.342.091-7.356 1.16-5.585 2.342-9.78 6.656-11.969 11.938-2.261 5.461-2.261 11.769.001 17.229 1.079 2.605 3.398 4.97 4.758 6.984zm15.635-13.56c-3.357 3.888-11.037 12.757-13.624 15.56 6.342 5.075 15.115 6.34 22.663 3.214.109-.045 1.026-.09.324-.137-1.847-3.036-6.708-14.016-9.363-18.637zm25.951-2.042c-.004-.013-.007-.034-.007-.002l.007.002zM12.268 111.698H43.43c1.86 0 1.86 3.001 0 3.001H12.268c-1.986 0-1.986-3.001 0-3.001zm0-6.239H43.43c1.86 0 1.86 3.002 0 3.002H12.268c-1.986 0-1.986-3.002 0-3.002z"/></svg>

<svg 
 xmlns="http://www.w3.org/2000/svg"
 xmlns:xlink="http://www.w3.org/1999/xlink"
 width="136px" height="131px">
<path fill-rule="evenodd"  fill="rgb(219, 131, 6)"
 d="M3.584,13.269 L77.242,13.269 L77.242,3.1 L4.315,3.1 C3.952,3.1 3.624,3.149 3.386,3.385 C3.149,3.623 3.2,3.951 3.2,4.313 L3.2,13.298 C3.184,13.280 3.378,13.269 3.584,13.269 L3.584,13.269 ZM80.246,3.1 L80.246,13.269 L88.33,13.269 L88.33,3.1 L80.246,3.1 L80.246,3.1 ZM91.35,3.1 L91.35,13.269 L99.248,13.269 L99.248,4.313 C99.248,3.951 99.102,3.623 98.867,3.388 L98.861,3.382 C98.627,3.148 98.299,3.1 97.936,3.1 L91.35,3.1 L91.35,3.1 ZM99.248,16.271 L3.584,16.271 C3.378,16.271 3.184,16.261 3.2,16.243 L3.2,126.684 C3.2,127.47 3.149,127.375 3.386,127.614 C3.624,127.849 3.952,127.996 4.315,127.996 L97.936,127.996 C98.297,127.996 98.626,127.849 98.864,127.614 C99.101,127.375 99.248,127.47 99.248,126.684 L99.248,115.478 L57.719,115.478 C56.539,115.478 55.462,114.993 54.679,114.213 C53.867,113.401 53.404,112.314 53.404,111.163 L53.404,58.400 C53.404,57.571 54.76,56.899 54.905,56.899 C55.734,56.899 56.407,57.571 56.407,58.400 L56.407,111.163 C56.407,111.517 56.544,111.845 56.794,112.95 C57.29,112.329 57.357,112.476 57.719,112.476 L66.619,112.476 C71.36,111.14 72.338,109.153 72.652,104.664 L72.656,104.664 C72.707,103.885 73.355,103.268 74.148,103.268 L134.288,103.308 C134.418,103.302 134.552,103.313 134.685,103.343 C135.491,103.525 135.998,104.326 135.817,105.132 C134.878,109.311 133.180,111.899 130.676,113.471 C128.233,115.6 125.145,115.478 121.315,115.478 L102.251,115.478 L102.251,126.684 C102.251,127.867 101.765,128.945 100.984,129.727 L100.978,129.732 C100.198,130.513 99.119,130.998 97.936,130.998 L4.315,130.998 C3.130,130.998 2.53,130.513 1.272,129.732 L1.266,129.727 C0.485,128.945 0.0,127.867 0.0,126.684 L0.0,4.313 C0.0,3.130 0.485,2.52 1.266,1.271 L1.272,1.266 C2.53,0.485 3.130,0.0 4.315,0.0 L97.936,0.0 C99.116,0.0 100.193,0.484 100.977,1.264 L100.978,1.266 L100.981,1.269 L100.984,1.272 C101.765,2.55 102.251,3.133 102.251,4.313 L102.251,24.504 L121.315,24.504 C122.502,24.504 123.582,24.989 124.364,25.771 L124.361,25.774 L124.364,25.777 C125.145,26.557 125.631,27.634 125.631,28.818 L125.631,90.910 C125.631,91.739 124.958,92.411 124.129,92.411 C123.300,92.411 122.628,91.739 122.628,90.910 L122.628,28.818 C122.628,28.457 122.480,28.128 122.244,27.890 L122.241,27.893 C122.3,27.654 121.675,27.506 121.315,27.506 L57.719,27.506 C57.357,27.506 57.29,27.652 56.794,27.888 L56.788,27.893 C56.553,28.128 56.407,28.456 56.407,28.818 L56.407,38.388 C56.407,39.216 55.734,39.889 54.905,39.889 C54.76,39.889 53.404,39.216 53.404,38.388 L53.404,28.818 C53.404,27.639 53.889,26.562 54.669,25.779 L54.671,25.777 L54.674,25.774 L54.677,25.771 C55.461,24.989 56.539,24.504 57.719,24.504 L99.248,24.504 L99.248,16.271 L99.248,16.271 ZM12.268,99.268 L43.43,99.268 C45.29,99.268 45.29,102.270 43.43,102.270 L12.268,102.270 C10.282,102.270 10.282,99.268 12.268,99.268 L12.268,99.268 ZM70.213,84.595 C67.866,82.248 65.971,79.436 64.674,76.304 C62.108,70.110 62.108,62.995 64.674,56.801 C67.170,50.775 71.871,45.938 77.821,43.268 C80.580,42.30 83.599,41.266 86.772,41.83 C86.975,41.72 87.224,41.62 87.512,41.54 C87.879,41.42 88.125,41.37 88.258,41.37 C89.87,41.37 89.759,41.709 89.759,42.538 C89.759,42.582 89.757,42.627 89.753,42.670 L89.798,64.257 L112.263,64.213 L112.263,64.207 C113.488,64.207 113.892,64.877 113.892,65.874 L113.886,65.874 C113.887,66.150 113.840,66.350 113.794,66.551 C113.791,66.563 113.788,66.558 113.786,66.549 L113.779,66.547 L113.779,66.553 C113.779,76.847 107.587,86.166 98.12,90.132 C88.487,94.77 77.459,91.839 70.213,84.595 L70.213,84.595 ZM51.815,53.522 C51.748,53.573 51.679,53.617 51.607,53.656 C51.637,53.720 51.666,53.786 51.693,53.853 C51.964,54.507 52.114,55.217 52.114,55.952 C52.114,56.691 51.964,57.404 51.693,58.57 C51.681,58.86 51.668,58.114 51.655,58.141 C51.374,58.788 50.980,59.364 50.501,59.843 C50.1,60.343 49.395,60.751 48.714,61.33 L48.715,61.35 C48.61,61.306 47.349,61.456 46.609,61.456 C45.874,61.456 45.163,61.306 44.509,61.35 C43.827,60.752 43.219,60.344 42.717,59.843 C42.217,59.343 41.810,58.737 41.527,58.56 L41.525,58.57 C41.254,57.404 41.105,56.691 41.105,55.952 C41.105,55.571 41.144,55.197 41.220,54.834 C38.958,53.531 34.401,50.768 32.534,49.632 C32.429,49.758 32.320,49.879 32.205,49.993 C31.704,50.494 31.98,50.900 30.418,51.183 L30.418,51.185 C29.764,51.456 29.52,51.606 28.313,51.606 C27.577,51.606 26.867,51.456 26.213,51.185 C26.15,51.103 25.824,51.11 25.640,50.909 C23.988,52.593 18.602,58.74 16.320,60.301 L16.372,60.422 L16.374,60.421 C16.645,61.75 16.795,61.787 16.795,62.526 C16.795,63.262 16.645,63.972 16.374,64.626 C16.91,65.308 15.683,65.917 15.182,66.418 C14.682,66.918 14.76,67.325 13.395,67.608 L13.396,67.610 C12.742,67.880 12.29,68.30 11.290,68.30 C10.554,68.30 9.844,67.880 9.190,67.610 C8.508,67.327 7.899,66.918 7.398,66.418 C6.898,65.918 6.491,65.312 6.208,64.631 L6.206,64.632 C5.935,63.978 5.786,63.266 5.786,62.526 C5.786,61.787 5.935,61.75 6.206,60.421 C6.218,60.393 6.231,60.365 6.244,60.337 C6.525,59.690 6.919,59.114 7.398,58.635 C7.898,58.136 8.504,57.728 9.185,57.446 L9.184,57.444 C9.838,57.173 10.550,57.23 11.290,57.23 C12.29,57.23 12.742,57.173 13.396,57.444 C13.424,57.456 13.452,57.469 13.479,57.482 C13.809,57.625 14.120,57.798 14.410,57.996 C16.572,55.870 21.893,50.452 23.517,48.797 C23.411,48.608 23.316,48.411 23.231,48.206 L23.229,48.207 C22.958,47.554 22.808,46.842 22.808,46.102 C22.808,45.362 22.958,44.650 23.229,43.997 C23.241,43.968 23.254,43.940 23.267,43.913 C23.548,43.266 23.942,42.690 24.420,42.211 C24.921,41.710 25.530,41.302 26.213,41.19 C26.867,40.749 27.577,40.599 28.313,40.599 C29.52,40.599 29.764,40.749 30.418,41.19 C30.447,41.32 30.475,41.44 30.502,41.58 C31.149,41.338 31.725,41.732 32.205,42.211 C32.706,42.712 33.114,43.320 33.397,44.2 C33.667,44.657 33.817,45.367 33.817,46.102 C33.817,46.366 33.798,46.626 33.761,46.881 C35.370,47.859 40.388,50.905 42.597,52.185 C42.637,52.143 42.677,52.101 42.717,52.61 C43.218,51.560 43.826,51.152 44.509,50.870 C45.163,50.599 45.874,50.449 46.609,50.449 C47.349,50.449 48.61,50.599 48.715,50.870 C48.744,50.881 48.771,50.895 48.799,50.908 C49.125,51.49 49.434,51.220 49.721,51.416 C49.799,51.315 49.891,51.223 49.997,51.142 C50.632,50.658 59.778,41.344 61.604,39.482 C61.333,38.829 61.184,38.117 61.184,37.378 C61.184,36.638 61.333,35.926 61.604,35.273 C61.616,35.244 61.629,35.216 61.642,35.189 C61.923,34.543 62.317,33.966 62.796,33.487 C63.297,32.986 63.905,32.578 64.588,32.295 C65.242,32.25 65.953,31.875 66.688,31.875 C67.428,31.875 68.140,32.25 68.794,32.295 C68.823,32.307 68.850,32.320 68.878,32.334 C69.524,32.614 70.101,33.7 70.580,33.487 C71.81,33.988 71.489,34.596 71.772,35.278 C72.43,35.932 72.193,36.642 72.193,37.378 C72.193,38.118 72.43,38.830 71.772,39.483 C71.760,39.512 71.747,39.539 71.734,39.567 C71.453,40.213 71.59,40.790 70.580,41.269 C70.80,41.770 69.474,42.176 68.793,42.459 L68.794,42.461 C68.140,42.732 67.428,42.881 66.688,42.881 C65.953,42.881 65.242,42.732 64.588,42.461 C64.191,42.297 63.819,42.89 63.478,41.847 C61.159,44.210 52.594,52.928 51.815,53.522 L51.815,53.522 ZM65.726,39.694 C66.15,39.813 66.340,39.879 66.688,39.879 C67.33,39.879 67.356,39.814 67.644,39.694 L67.645,39.696 L67.650,39.694 C67.946,39.571 68.221,39.383 68.457,39.147 C68.679,38.925 68.858,38.670 68.981,38.394 L69.4,38.334 C69.124,38.45 69.190,37.723 69.190,37.378 C69.190,37.29 69.124,36.705 69.4,36.416 C68.882,36.120 68.694,35.846 68.457,35.609 C68.235,35.387 67.980,35.208 67.705,35.86 L67.644,35.62 C67.356,34.943 67.33,34.877 66.688,34.877 C66.340,34.877 66.15,34.943 65.726,35.62 C65.430,35.185 65.156,35.372 64.919,35.609 C64.697,35.831 64.518,36.86 64.396,36.361 L64.372,36.422 C64.252,36.711 64.186,37.33 64.186,37.378 C64.186,37.723 64.252,38.45 64.372,38.334 L64.370,38.335 L64.372,38.340 C64.494,38.636 64.682,38.910 64.919,39.147 C65.156,39.383 65.430,39.571 65.726,39.694 L65.726,39.694 ZM45.647,58.268 C45.936,58.388 46.261,58.453 46.609,58.453 C46.954,58.453 47.277,58.388 47.565,58.268 L47.566,58.271 L47.571,58.268 C47.867,58.145 48.142,57.958 48.378,57.721 C48.601,57.499 48.779,57.244 48.902,56.969 L48.925,56.908 C49.45,56.620 49.111,56.296 49.111,55.952 C49.111,55.604 49.45,55.279 48.925,54.990 C48.803,54.694 48.615,54.420 48.378,54.183 C48.156,53.961 47.901,53.783 47.626,53.661 L47.565,53.637 C47.277,53.517 46.954,53.451 46.609,53.451 C46.261,53.451 45.936,53.517 45.647,53.637 C45.351,53.759 45.77,53.947 44.840,54.183 C44.664,54.359 44.516,54.556 44.400,54.766 C44.384,54.802 44.366,54.837 44.347,54.871 L44.317,54.935 L44.293,54.996 C44.174,55.285 44.107,55.607 44.107,55.952 C44.107,56.296 44.174,56.620 44.293,56.908 L44.291,56.909 L44.293,56.914 C44.415,57.210 44.603,57.484 44.840,57.721 C45.77,57.958 45.351,58.145 45.647,58.268 L45.647,58.268 ZM27.350,48.418 C27.639,48.537 27.964,48.603 28.313,48.603 C28.657,48.603 28.980,48.538 29.269,48.418 L29.270,48.421 L29.275,48.418 C29.571,48.295 29.845,48.108 30.82,47.871 C30.304,47.649 30.483,47.394 30.605,47.119 L30.629,47.58 C30.748,46.769 30.814,46.447 30.814,46.102 C30.814,45.754 30.748,45.429 30.629,45.140 C30.506,44.844 30.319,44.570 30.82,44.334 C29.860,44.112 29.605,43.933 29.330,43.811 L29.269,43.787 C28.980,43.667 28.657,43.601 28.313,43.601 C27.964,43.601 27.639,43.667 27.350,43.787 C27.54,43.909 26.780,44.96 26.543,44.334 C26.321,44.555 26.143,44.810 26.20,45.85 L25.997,45.146 C25.877,45.435 25.811,45.758 25.811,46.102 C25.811,46.447 25.877,46.769 25.997,47.58 L25.995,47.59 L25.997,47.64 C26.119,47.360 26.307,47.634 26.543,47.871 C26.780,48.108 27.55,48.295 27.350,48.418 L27.350,48.418 ZM10.328,64.842 C10.617,64.962 10.942,65.29 11.290,65.29 C11.635,65.29 11.958,64.962 12.246,64.842 L12.247,64.845 L12.252,64.842 C12.548,64.720 12.822,64.532 13.59,64.295 C13.296,64.59 13.483,63.784 13.606,63.488 C13.726,63.199 13.792,62.875 13.792,62.526 C13.792,62.182 13.726,61.859 13.606,61.570 L13.608,61.569 L13.606,61.565 C13.483,61.269 13.296,60.995 13.59,60.758 C12.837,60.536 12.582,60.357 12.307,60.235 L12.246,60.211 C11.958,60.91 11.635,60.25 11.290,60.25 C10.945,60.25 10.622,60.91 10.334,60.211 L10.333,60.209 L10.328,60.211 C10.31,60.333 9.757,60.521 9.521,60.758 C9.299,60.980 9.120,61.235 8.998,61.510 L8.974,61.570 C8.854,61.859 8.788,62.182 8.788,62.526 C8.788,62.871 8.854,63.194 8.974,63.482 L8.972,63.483 L8.974,63.488 C9.96,63.785 9.284,64.59 9.521,64.295 C9.758,64.532 10.32,64.720 10.328,64.842 L10.328,64.842 ZM72.43,112.476 L121.315,112.476 C124.618,112.476 127.209,112.113 129.81,110.938 C130.533,110.27 131.630,108.559 132.392,106.298 L75.529,106.259 C75.251,108.955 74.422,111.7 72.43,112.476 L72.43,112.476 ZM119.743,60.281 C119.745,60.426 119.748,60.586 119.748,60.760 C119.748,61.586 119.79,62.255 118.253,62.255 L94.182,62.206 C93.356,62.206 92.687,61.536 92.687,60.711 L92.646,36.837 C92.646,36.11 93.316,35.342 94.142,35.342 C94.398,35.341 94.645,35.344 94.882,35.350 C95.166,35.357 95.415,35.366 95.623,35.377 C98.792,35.548 101.814,36.300 104.581,37.530 C110.376,40.104 115.34,44.765 117.594,50.567 C118.845,53.404 119.595,56.518 119.729,59.798 C119.734,59.923 119.738,60.83 119.743,60.281 L119.743,60.281 ZM116.702,59.262 C116.517,56.618 115.873,54.95 114.850,51.775 C112.594,46.661 108.482,42.532 103.373,40.262 C100.989,39.202 98.382,38.545 95.640,38.377 L95.675,59.219 L116.702,59.262 L116.702,59.262 ZM72.20,82.151 C74.368,79.610 84.730,67.609 86.810,65.199 L86.766,44.84 C84.28,44.263 81.424,44.931 79.41,46.0 C73.825,48.342 69.630,52.656 67.441,57.938 C65.180,63.399 65.180,69.707 67.442,75.167 C68.521,77.772 70.84,80.137 72.20,82.151 L72.20,82.151 ZM87.835,68.591 C84.478,72.479 76.798,81.348 74.211,84.151 C80.553,89.226 89.326,90.491 96.874,87.365 C96.983,87.320 97.90,87.275 97.198,87.228 C95.351,84.192 90.49,73.212 87.835,68.591 L87.835,68.591 ZM113.786,66.549 C113.782,66.536 113.779,66.515 113.779,66.547 L113.786,66.549 L113.786,66.549 ZM12.268,111.698 L43.43,111.698 C45.29,111.698 45.29,114.699 43.43,114.699 L12.268,114.699 C10.282,114.699 10.282,111.698 12.268,111.698 L12.268,111.698 ZM12.268,105.459 L43.43,105.459 C45.29,105.459 45.29,108.461 43.43,108.461 L12.268,108.461 C10.282,108.461 10.282,105.459 12.268,105.459 L12.268,105.459 Z"/>
</svg>
